dist/img/32.svg

<svg version="1.1" xmlns="http://www.w3.org/2000/svg" xmlns:xlink="http://www.w3.org/1999/xlink" x="0px" y="0px" width="512px" height="512px"><path d="M323.420166,186.3429871h45.3304138v170.4624634H323.420166V186.3429871z M179.1869965,299.6504822h61.3315887l16.5765991,57.0992737h46.4256287l-67.4202118-223.9791107h-56.3567505v22.1083374l-59.1226196,201.8707733h41.9891205L179.1869965,299.6504822z M209.5743408,172.6250458l22.6652069,87.8578949h-45.3118591L209.5743408,172.6250458z M0,5.3368273v501.326355h512V5.3368273H0z M473.6120605,467.1986084H39.130455V44.8014297h434.4815979V467.1986084z M369.8085022,142.7200012c0-17.8384094-19.6147156-29.0479507-35.2217407-20.128746s-15.6070251,31.3382797,0,40.2574844S369.8085022,160.5584106,369.8085022,142.7200012z"/></svg>

<svg xmlns="http://www.w3.org/2000/svg" width="512" height="512"><path d="M323.42 186.343h45.33v170.462h-45.33V186.343zM179.187 299.65h61.332l16.576 57.1h46.426L236.1 132.77h-56.357v22.109l-59.123 201.87h41.99l16.576-57.099zm30.387-127.025l22.666 87.858h-45.312l22.646-87.858zM0 5.337v501.326h512V5.337H0zm473.612 461.862H39.13V44.8h434.482v422.4zM369.81 142.72c0-17.838-19.615-29.048-35.222-20.129s-15.607 31.339 0 40.258 35.222-2.29 35.222-20.129z"/></svg>
